actions/22x22-dark/view-calendar-list.svg

<svg xmlns="http://www.w3.org/2000/svg" viewBox="0 0 22 22">
 <defs id="defs3051">
   <style type="text/css" id="current-color-scheme">
     .ColorScheme-Text {
       color:#f2f2f2;
     }
     </style>
 </defs>
   <path
      style="fill:currentColor;fill-opacity:1;stroke:none"
      d="m4 3c-.55402 0-1 .44598-1 1v14c0 .55402.44598 1 1 1h14c .55402 0 1-.44598 1-1v-14c0-.55402-.44598-1-1-1zm3 4h8c .31657 0 .57227.25569.57227.57227 0 .31657-.2557.57031-.57227.57031h-8c-.31657 0-.57227-.25374-.57227-.57031 0-.31658.2557-.57227.57227-.57227zm0 2.28516h8c .31657 0 .57227.25569.57227.57226s-.2557.57031-.57227.57031h-8c-.31657 0-.57227-.25374-.57227-.57031s.2557-.57226.57227-.57226zm0 2.28711h8c .31657 0 .57227.25374.57227.57031s-.2557.57226-.57227.57226h-8c-.31657 0-.57227-.25569-.57227-.57226s.2557-.57031.57227-.57031zm0 2.28515h8c .31657 0 .57227.25374.57227.57031 0 .31658-.2557.57227-.57227.57227h-8c-.31657 0-.57227-.25569-.57227-.57227 0-.31657.2557-.57031.57227-.57031z"
      class="ColorScheme-Text" />
</svg>

<svg xmlns="http://www.w3.org/2000/svg" viewBox="0 0 22 22">
  <defs id="defs3051">
    <style type="text/css" id="current-color-scheme">
      .ColorScheme-Text {
        color:#f2f2f2
      }
      </style>
  </defs>
 <path 
     style="fill:currentColor;fill-opacity:1;stroke:none"      
	 class="ColorScheme-Text"
        d="M 4,3 C 3.44598,3 3,3.44598 3,4 l 0,14 c 0,0.55402 0.44598,1 1,1 l 14,0 c 0.55402,0 1,-0.44598 1,-1 L 19,4 C 19,3.44598 18.55402,3 18,3 L 4,3 Z m 3,4 8,0 c 0.31657,0 0.57227,0.25569 0.57227,0.57227 0,0.31657 -0.2557,0.57031 -0.57227,0.57031 l -8,0 C 6.68343,8.14258 6.42773,7.88884 6.42773,7.57227 6.42773,7.25569 6.68343,7 7,7 Z m 0,2.28516 8,0 c 0.31657,0 0.57227,0.25569 0.57227,0.57226 0,0.31657 -0.2557,0.57031 -0.57227,0.57031 l -8,0 c -0.31657,0 -0.57227,-0.25374 -0.57227,-0.57031 0,-0.31657 0.2557,-0.57226 0.57227,-0.57226 z m 0,2.28711 8,0 c 0.31657,0 0.57227,0.25374 0.57227,0.57031 0,0.31657 -0.2557,0.57226 -0.57227,0.57226 l -8,0 c -0.31657,0 -0.57227,-0.25569 -0.57227,-0.57226 0,-0.31657 0.2557,-0.57031 0.57227,-0.57031 z m 0,2.28515 8,0 c 0.31657,0 0.57227,0.25374 0.57227,0.57031 C 15.57227,14.74431 15.31657,15 15,15 L 7,15 C 6.68343,15 6.42773,14.74431 6.42773,14.42773 6.42773,14.11116 6.68343,13.85742 7,13.85742 Z"
     />
</svg>
